icons/svg/water/canal.svg

<?xml version="1.0" encoding="UTF-8" standalone="no"?>
<!-- Created with Inkscape (http://www.inkscape.org/) -->

<svg
   xmlns:dc="http://purl.org/dc/elements/1.1/"
   xmlns:cc="http://creativecommons.org/ns#"
   xmlns:rdf="http://www.w3.org/1999/02/22-rdf-syntax-ns#"
   xmlns:svg="http://www.w3.org/2000/svg"
   xmlns="http://www.w3.org/2000/svg"
   xmlns:sodipodi="http://sodipodi.sourceforge.net/DTD/sodipodi-0.dtd"
   xmlns:inkscape="http://www.inkscape.org/namespaces/inkscape"
   version="1.0"
   width="580"
   height="580"
   id="svg2"
   sodipodi:version="0.32"
   inkscape:version="0.91 r"
   sodipodi:docname="canal.svg"
   inkscape:output_extension="org.inkscape.output.svg.inkscape">
  <metadata
     id="metadata2975">
    <rdf:RDF>
      <cc:Work
         rdf:about="">
        <dc:format>image/svg+xml</dc:format>
        <dc:type
           rdf:resource="http://purl.org/dc/dcmitype/StillImage" />
        <cc:license
           rdf:resource="http://web.resource.org/cc/PublicDomain" />
        <dc:language>en</dc:language>
        <dc:title />
      </cc:Work>
    </rdf:RDF>
  </metadata>
  <sodipodi:namedview
     inkscape:window-height="1004"
     inkscape:window-width="1920"
     inkscape:pageshadow="2"
     inkscape:pageopacity="0.0"
     guidetolerance="10.0"
     gridtolerance="10.0"
     objecttolerance="10.0"
     borderopacity="1.0"
     bordercolor="#666666"
     pagecolor="#ffffff"
     id="base"
     inkscape:zoom="0.46083856"
     inkscape:cx="396.88215"
     inkscape:cy="668.25076"
     inkscape:window-x="1680"
     inkscape:window-y="0"
     inkscape:current-layer="svg2"
     showgrid="false"
     inkscape:window-maximized="1" />
  <defs
     id="defs4">
    <inkscape:perspective
       sodipodi:type="inkscape:persp3d"
       inkscape:vp_x="0 : 290 : 1"
       inkscape:vp_y="0 : 1000 : 0"
       inkscape:vp_z="580 : 290 : 1"
       inkscape:persp3d-origin="290 : 193.33333 : 1"
       id="perspective2441" />
    <inkscape:perspective
       id="perspective2466"
       inkscape:persp3d-origin="372.04724 : 350.78739 : 1"
       inkscape:vp_z="744.09448 : 526.18109 : 1"
       inkscape:vp_y="0 : 1000 : 0"
       inkscape:vp_x="0 : 526.18109 : 1"
       sodipodi:type="inkscape:persp3d" />
    <inkscape:perspective
       id="perspective3333"
       inkscape:persp3d-origin="372.04724 : 350.78739 : 1"
       inkscape:vp_z="744.09448 : 526.18109 : 1"
       inkscape:vp_y="0 : 1000 : 0"
       inkscape:vp_x="0 : 526.18109 : 1"
       sodipodi:type="inkscape:persp3d" />
    <inkscape:perspective
       id="perspective3401"
       inkscape:persp3d-origin="372.04724 : 350.78739 : 1"
       inkscape:vp_z="744.09448 : 526.18109 : 1"
       inkscape:vp_y="0 : 1000 : 0"
       inkscape:vp_x="0 : 526.18109 : 1"
       sodipodi:type="inkscape:persp3d" />
    <inkscape:perspective
       id="perspective3464"
       inkscape:persp3d-origin="372.04724 : 350.78739 : 1"
       inkscape:vp_z="744.09448 : 526.18109 : 1"
       inkscape:vp_y="0 : 1000 : 0"
       inkscape:vp_x="0 : 526.18109 : 1"
       sodipodi:type="inkscape:persp3d" />
  </defs>
  <g
     id="g1327"
     transform="matrix(-1,0,0,1,579.853,0)">
    <path
       d="M 66.275,1.768 C 24.94,1.768 1.704,23.139 1.704,66.804 l 0,450.123 c 0,40.844 20.895,62.229 62.192,62.229 l 452.024,0 c 41.307,0 62.229,-20.315 62.229,-62.229 l 0,-450.123 c 0,-42.601 -20.922,-65.036 -63.521,-65.036 -0.004,0 -448.495,-0.143 -448.353,0 z"
       style="fill:#111111;stroke:#eeeeee;stroke-width:3.40799999"
       id="path1329"
       inkscape:connector-curvature="0" />
  </g>
  <path
     style="color:#000000;display:inline;overflow:visible;visibility:visible;opacity:1;fill:#ffffff;fill-opacity:1;fill-rule:nonzero;stroke:none;stroke-width:10.45699978;stroke-linecap:butt;stroke-linejoin:miter;stroke-miterlimit:4;stroke-dasharray:none;stroke-dashoffset:0;stroke-opacity:1;marker:none;enable-background:accumulate"
     d="M 354.75781 35.208984 L 372.21484 219.95117 L 400.4375 257.0293 L 426.4668 532.51758 L 561.58594 532.51758 L 484.76172 256.93164 L 484.66602 256.93164 L 451.49414 219.95117 L 402.03516 35.208984 L 354.75781 35.208984 z "
     id="rect4140" />
  <path
     style="color:#000000;display:inline;overflow:visible;visibility:visible;opacity:1;fill:#ffffff;fill-opacity:1;fill-rule:nonzero;stroke:none;stroke-width:10.45699978;stroke-linecap:butt;stroke-linejoin:miter;stroke-miterlimit:4;stroke-dasharray:none;stroke-dashoffset:0;stroke-opacity:1;marker:none;enable-background:accumulate"
     d="M 182.80859 35.208984 L 133.34961 219.95117 L 96.353516 256.93164 L 96.246094 256.93164 L 18.414062 532.51758 L 158.37695 532.51758 L 184.38086 257.3125 L 212.63086 219.95117 L 230.08594 35.208984 L 182.80859 35.208984 z "
     id="rect4140-9" />
  <path
     style="fill:#ffffff;fill-opacity:1"
     d="m 231.89844,237.64258 c -1.30518,1.01514 -2.65824,1.96992 -4.04297,2.8789 l -19.68945,26.03907 -1.75196,18.53906 c 9.003,-2.71046 17.96532,-6.74754 25.48438,-12.5957 17.43046,13.55707 42.60773,17.42968 58.10156,17.42968 15.49383,0 40.67104,-3.87261 58.10156,-17.42968 8.9061,6.927 19.83301,11.31338 30.45899,13.95898 l -1.9043,-20.14453 -16.00195,-21.02148 c -4.43807,-2.11751 -8.6867,-4.64737 -12.55274,-7.6543 -17.43052,13.55705 -42.60773,17.42969 -58.10156,17.42969 -15.49383,0 -40.6711,-3.87264 -58.10156,-17.42969 z m 59.66992,95.79492 c -17.94196,13.95486 -43.85823,17.94336 -59.80664,17.94336 -8.48102,0 -19.78268,-1.14798 -31.20313,-4.30274 l -3.29882,34.91407 c 12.51898,3.89562 25.20366,5.27148 34.50195,5.27148 15.94841,0 41.86468,-3.98653 59.80664,-17.9414 17.94192,13.95487 43.85817,17.9414 59.80664,17.9414 9.70933,0 23.11052,-1.496 36.16016,-5.80078 l -3.29297,-34.8457 c -11.98105,3.51686 -23.97399,4.76367 -32.86719,4.76367 -15.94847,0 -41.86472,-3.9885 -59.80664,-17.94336 z M 226.7832,459.33008 c -11.16376,8.68292 -25.24003,13.69658 -38.37695,16.36719 l -3.65039,38.61914 c 14.13315,-2.4501 29.82121,-7.56298 42.02734,-17.05664 18.96485,14.75048 46.35906,18.96484 63.2168,18.96484 16.85774,0 44.25189,-4.21436 63.2168,-18.96484 13.644,10.61205 31.63441,15.75318 46.9414,17.8125 l -3.63476,-38.47071 c -14.45906,-2.35845 -30.72989,-7.48952 -43.30664,-17.27148 -18.96491,14.75047 -46.35906,18.96484 -63.2168,18.96484 -16.85774,0 -44.25195,-4.21437 -63.2168,-18.96484 z"
     id="path7"
     inkscape:connector-curvature="0"
     sodipodi:nodetypes="cccccscccccsccsccscsccscccccsccccsc" />
  <path
     style="fill:#ffffff;fill-opacity:1"
     d="m 274.69141,51.271484 c -6.505,3.165189 -14.3079,5.310035 -22.09766,6.71875 l -1.74219,18.429688 c 8.36107,-1.396536 16.84945,-3.618153 23.83985,-7.019531 14.48909,7.050097 35.41955,9.066406 48.29882,9.066406 3.27602,0 7.07515,-0.132912 11.1543,-0.443359 l -1.70312,-18.013672 c -3.429,0.223591 -6.63891,0.328125 -9.45118,0.328125 -12.87927,0 -33.80973,-2.016316 -48.29882,-9.066407 z m 43.62695,50.212896 c -12.31468,7.82345 -39.46179,10.05664 -50.4082,10.05664 -4.62911,0 -12.16205,-0.40607 -20.23828,-1.45899 l -1.87696,19.85938 c 8.77645,1.24457 17.12862,1.71679 22.11524,1.71679 10.94641,0 38.09352,-2.23319 50.4082,-10.05664 5.07365,3.22328 12.6709,5.48443 20.60937,7.04492 l -1.9375,-20.5039 c -7.22611,-1.54166 -14.0118,-3.69766 -18.67187,-6.6582 z m -41.32422,59.05468 c -10.23019,6.68756 -23.38353,10.28557 -35.22461,12.00586 l -2.55469,27.03125 c 12.46961,-1.55826 26.80828,-5.18753 37.7793,-12.35937 15.87003,10.3744 38.7936,13.33984 52.90039,13.33984 4.51236,0 9.93136,-0.30835 15.72852,-1.06055 l -2.49414,-26.38476 c -4.8504,0.53405 -9.37768,0.76758 -13.23438,0.76758 -14.10679,0 -37.03036,-2.96545 -52.90039,-13.33985 z"
     id="path7-9"
     inkscape:connector-curvature="0"
     sodipodi:nodetypes="ccccsccsccsccsccccccccsccsc" />
</svg>

<svg width="580" height="580" viewBox="0 0 580 580" fill="none" xmlns="http://www.w3.org/2000/svg">
<g clip-path="url(#clip0)">
<path d="M513.578 1.76799C554.913 1.76799 578.149 23.139 578.149 66.804V516.927C578.149 557.771 557.254 579.156 515.957 579.156H63.933C22.626 579.156 1.70404 558.841 1.70404 516.927V66.804C1.70404 24.203 22.626 1.76799 65.225 1.76799C65.229 1.76799 513.72 1.62499 513.578 1.76799V1.76799Z" fill="#111111" stroke="#EEEEEE" stroke-width="3.408"/>
<path d="M354.758 35.209L372.215 219.951L400.438 257.029L426.467 532.518H561.586L484.762 256.932H484.666L451.494 219.951L402.035 35.209H354.758Z" fill="white"/>
<path d="M182.809 35.209L133.35 219.951L96.3535 256.932H96.2461L18.4141 532.518H158.377L184.381 257.312L212.631 219.951L230.086 35.209H182.809Z" fill="white"/>
<path d="M231.898 237.643C230.593 238.658 229.24 239.613 227.855 240.521L208.166 266.561L206.414 285.1C215.417 282.389 224.379 278.352 231.898 272.504C249.329 286.061 274.506 289.934 290 289.934C305.494 289.934 330.671 286.061 348.102 272.504C357.008 279.431 367.935 283.817 378.561 286.463L376.656 266.318L360.654 245.297C356.216 243.179 351.968 240.65 348.102 237.643C330.671 251.2 305.494 255.072 290 255.072C274.506 255.072 249.329 251.2 231.898 237.643V237.643ZM291.568 333.438C273.626 347.392 247.71 351.381 231.762 351.381C223.281 351.381 211.979 350.233 200.559 347.078L197.26 381.992C209.779 385.888 222.463 387.264 231.762 387.264C247.71 387.264 273.626 383.277 291.568 369.322C309.51 383.277 335.427 387.264 351.375 387.264C361.084 387.264 374.486 385.768 387.535 381.463L384.242 346.617C372.261 350.134 360.268 351.381 351.375 351.381C335.427 351.381 309.51 347.392 291.568 333.438ZM226.783 459.33C215.619 468.013 201.543 473.027 188.406 475.697L184.756 514.316C198.889 511.866 214.577 506.753 226.783 497.26C245.748 512.01 273.142 516.225 290 516.225C306.858 516.225 334.252 512.01 353.217 497.26C366.861 507.872 384.851 513.013 400.158 515.072L396.523 476.602C382.064 474.243 365.794 469.112 353.217 459.33C334.252 474.081 306.858 478.295 290 478.295C273.142 478.295 245.748 474.081 226.783 459.33V459.33Z" fill="white"/>
<path d="M274.691 51.2715C268.186 54.4367 260.384 56.5815 252.594 57.9902L250.852 76.4199C259.213 75.0234 267.701 72.8018 274.691 69.4004C289.18 76.4505 310.111 78.4668 322.99 78.4668C326.266 78.4668 330.065 78.3339 334.145 78.0234L332.441 60.0098C329.012 60.2334 325.803 60.3379 322.99 60.3379C310.111 60.3379 289.18 58.3216 274.691 51.2715V51.2715ZM318.318 101.484C306.004 109.308 278.857 111.541 267.91 111.541C263.281 111.541 255.748 111.135 247.672 110.082L245.795 129.941C254.571 131.186 262.924 131.658 267.91 131.658C278.857 131.658 306.004 129.425 318.318 121.602C323.392 124.825 330.989 127.086 338.928 128.646L336.99 108.143C329.764 106.601 322.978 104.445 318.318 101.484V101.484ZM276.994 160.539C266.764 167.227 253.611 170.825 241.77 172.545L239.215 199.576C251.684 198.018 266.023 194.389 276.994 187.217C292.864 197.591 315.788 200.557 329.895 200.557C334.407 200.557 339.826 200.248 345.623 199.496L343.129 173.111C338.279 173.645 333.751 173.879 329.895 173.879C315.788 173.879 292.864 170.913 276.994 160.539Z" fill="white"/>
</g>
<defs>
<clipPath id="clip0">
<path d="M0 0H580V580H0V0Z" fill="white"/>
</clipPath>
</defs>
</svg>
